src/application/resources/icons/gear.svg

<svg height="200" viewBox="0 0 200 200" width="200"><path d="m110.45312.546875l-10.45312 19.453125-32.539062 6.916016-17.460938-13.519532-30.902344 27.824219 11.621094 18.779297-10.28125 31.638672-20.4375 8.361328 8.6445312 40.67383 22.0742188-.67383 22.257812 24.7207-2.976562 21.88282 39.546875 12.8496 10.453125-19.45312 32.53906-6.91602 17.46094 13.51954 30.90234-27.82422-11.62109-18.7793 10.28125-31.63867 20.4375-8.36133-8.64453-40.673828-22.07422.673828-22.25781-24.720703 2.97656-21.882813zm-10.45312 59.453125a40 40 0 0 1 40 40 40 40 0 0 1 -40 40 40 40 0 0 1 -40-40 40 40 0 0 1  40-40z"/></svg>

<?xml version="1.0" encoding="UTF-8" standalone="no"?>
<!-- Generator: Adobe Illustrator 16.0.0, SVG Export Plug-In . SVG Version: 6.00 Build 0)  -->

<svg
   xmlns:dc="http://purl.org/dc/elements/1.1/"
   xmlns:cc="http://creativecommons.org/ns#"
   xmlns:rdf="http://www.w3.org/1999/02/22-rdf-syntax-ns#"
   xmlns:svg="http://www.w3.org/2000/svg"
   xmlns="http://www.w3.org/2000/svg"
   xmlns:sodipodi="http://sodipodi.sourceforge.net/DTD/sodipodi-0.dtd"
   xmlns:inkscape="http://www.inkscape.org/namespaces/inkscape"
   x="0px"
   y="0px"
   width="200"
   height="200"
   version="0.0"
   viewBox="0 0 200 200"
   xml:space="preserve"
   inkscape:version="0.91 r13725"
   sodipodi:docname="gear.svg"
   id="svg"><metadata
     id="metadata11"><rdf:RDF><cc:Work
         rdf:about=""><dc:format>image/svg+xml</dc:format><dc:type
           rdf:resource="http://purl.org/dc/dcmitype/StillImage" /></cc:Work></rdf:RDF></metadata><defs
     id="defs4" /><sodipodi:namedview
     inkscape:zoom="1.4899352"
     inkscape:cx="0.8141758"
     inkscape:cy="89.065713"
     inkscape:window-width="1920"
     inkscape:window-height="1032"
     inkscape:window-x="0"
     inkscape:window-y="0"
     inkscape:window-maximized="1"
     inkscape:current-layer="svg"
     id="namedview6"
     showgrid="false" /><path
     d="M 110.45312 0.546875 L 100 20 L 67.460938 26.916016 L 50 13.396484 L 19.097656 41.220703 L 30.71875 60 L 20.4375 91.638672 L 0 100 L 8.6445312 140.67383 L 30.71875 140 L 52.976562 164.7207 L 50 186.60352 L 89.546875 199.45312 L 100 180 L 132.53906 173.08398 L 150 186.60352 L 180.90234 158.7793 L 169.28125 140 L 179.5625 108.36133 L 200 100 L 191.35547 59.326172 L 169.28125 60 L 147.02344 35.279297 L 150 13.396484 L 110.45312 0.546875 z M 100 60 A 40 40 0 0 1 140 100 A 40 40 0 0 1 100 140 A 40 40 0 0 1 60 100 A 40 40 0 0 1 100 60 z "
     id="path9" /></svg>
